dist/img/sprites/tg-f.svg

<svg width="25" height="24" viewBox="0 0 25 24" fill="none" xmlns="http://www.w3.org/2000/svg">
<g clip-path="url(#clip0_3001_10878)">
<path d="M12.4102 0C5.78616 0 0.410156 5.376 0.410156 12C0.410156 18.624 5.78616 24 12.4102 24C19.0342 24 24.4102 18.624 24.4102 12C24.4102 5.376 19.0342 0 12.4102 0ZM17.9782 8.16C17.7982 10.056 17.0182 14.664 16.6222 16.788C16.4542 17.688 16.1182 17.988 15.8062 18.024C15.1102 18.084 14.5822 17.568 13.9102 17.124C12.8542 16.428 12.2542 15.996 11.2342 15.324C10.0462 14.544 10.8142 14.112 11.4982 13.416C11.6782 13.236 14.7502 10.44 14.8102 10.188C14.8185 10.1498 14.8174 10.1102 14.8069 10.0726C14.7965 10.0349 14.777 10.0004 14.7502 9.972C14.6782 9.912 14.5822 9.936 14.4982 9.948C14.3902 9.972 12.7102 11.088 9.43416 13.296C8.95416 13.62 8.52216 13.788 8.13816 13.776C7.70616 13.764 6.89016 13.536 6.27816 13.332C5.52216 13.092 4.93416 12.96 4.98216 12.54C5.00616 12.324 5.30616 12.108 5.87016 11.88C9.37416 10.356 11.7022 9.348 12.8662 8.868C16.2022 7.476 16.8862 7.236 17.3422 7.236C17.4382 7.236 17.6662 7.26 17.8102 7.38C17.9302 7.476 17.9662 7.608 17.9782 7.704C17.9662 7.776 17.9902 7.992 17.9782 8.16Z" fill="#0F582D"/>
</g>
<defs>
<clipPath id="clip0_3001_10878">
<rect width="24" height="24" fill="white" transform="translate(0.410156)"/>
</clipPath>
</defs>
</svg>

<svg width="25" height="24" viewBox="0 0 25 24" fill="none" xmlns="http://www.w3.org/2000/svg"><g clip-path="url(#clip0_3001_10878)"><path d="M12.41 0c-6.624 0-12 5.376-12 12s5.376 12 12 12 12-5.376 12-12-5.376-12-12-12zm5.568 8.16c-.18 1.896-.96 6.504-1.356 8.628-.168.9-.504 1.2-.816 1.236-.696.06-1.224-.456-1.896-.9-1.056-.696-1.656-1.128-2.676-1.8-1.188-.78-.42-1.212.264-1.908.18-.18 3.252-2.976 3.312-3.228a.24.24 0 00-.06-.216c-.072-.06-.168-.036-.252-.024-.108.024-1.788 1.14-5.064 3.348-.48.324-.912.492-1.296.48-.432-.012-1.248-.24-1.86-.444-.756-.24-1.344-.372-1.296-.792.024-.216.324-.432.888-.66 3.504-1.524 5.832-2.532 6.996-3.012 3.336-1.392 4.02-1.632 4.476-1.632.096 0 .324.024.468.144.12.096.156.228.168.324-.012.072.012.288 0 .456z" fill="#0F582D"/></g><defs><clipPath id="clip0_3001_10878"><path fill="#fff" transform="translate(.41)" d="M0 0h24v24H0z"/></clipPath></defs></svg>
